X: 50
T:Answer I Got (#160), The
M:6/8
L:1/8
S:Rice-Walsh manuscript
K:G
dBG GDG|GDG B2 d|ecA ABA|ABA c2 e|
dBG GDG|GDG B2 d|efg dBd|1gba gfe:|2GGG G2 B/2c/2|
|:dBg dBg|ecg ecg|fdg fdg|aAA ABc|
dBg dBg|ecg ecg|fdg fga|gba gfe:||

